X: 117
T: Fenhong lian
L: 1/8
M: 2/4
K: G
G A d B [I:setbarnb 1]| 
A4 | 
B A G E | 
D4 | 
G2A2 | 
B d B A | 
G A G E | 
D4 | 
G BA2 | 
A d B d | 
A2D E | 
G4 | 
B A G E | 
D2D2 | 
E D B A | 
G4 |]

@@@ Tune index: 8991
